X:1
T:Shoemaker, CM
T:Shoemaker, CM
T:Charles Edward Pollock, 1902
T:Public Domain Courtesy of the Cyber Hymnal™
C:Charles Edward Pollock, 1902
Z:Public Domain
Z:Courtesy of the Cyber Hymnal™
%%score ( 1 2 ) ( 3 4 )
L:1/8
Q:1/4=125
M:3/2
K:F
V:1 treble 
V:2 treble 
V:3 bass 
V:4 bass 
V:1
 [FA]2 [EG]2 F2 | [Ec]6 [EG]2 [FA]2 [GB]2 | [FA]6 [FA]2 [FA]2 F2 | ([DG]4 [CF]4) [CE]4 | %4
 [CF]6 [EG]2 [EG]2 [FA]2 | [GB]6 [EG]2 [FA]2 [F=B]2 | [Ec]6 [Fd]2 [Fc]2 [GB]2 | [FA]8 [EG]4 | F6 |] %9
V:2
 x4 F2 | x12 | x10 F2 | x12 | x12 | x12 | x12 | x12 | F6 |] %9
V:3
 [F,C]2 [C,B,]2 [D,A,]2 | B,2 G,4 [C,C]2 [C,C]2 [C,C]2 | [F,C]6 [F,C]2 [C,B,]2 [C,A,]2 | %3
 ([B,,B,]4 [C,A,]4) [C,G,]4 | [F,A,]6 [C,C]2 [C,C]2 [C,C]2 | [C,C]6 [C,C]2 [F,C]2 [D,G,]2 | %6
 (G,4 B,2) [B,,B,]2 [A,,C]2 [B,,D]2 | [C,C]8 [C,B,]4 | [F,A,]6 |] %9
V:4
 x6 | C,6 x6 | x12 | x12 | x12 | x12 | C,6 x6 | x12 | x6 |] %9

